assets/img/devicon_google.svg

<svg width="16" height="16" viewBox="0 0 16 16" fill="none" xmlns="http://www.w3.org/2000/svg">
<g clip-path="url(#clip0_985_4795)">
<path d="M5.57374 0.526126C3.97509 1.08071 2.59642 2.13333 1.64023 3.52938C0.684041 4.92542 0.200732 6.59131 0.261296 8.28233C0.32186 9.97336 0.923104 11.6004 1.97671 12.9245C3.03032 14.2485 4.48077 15.1998 6.11499 15.6386C7.4399 15.9805 8.828 15.9955 10.16 15.6824C11.3666 15.4113 12.4822 14.8316 13.3975 13.9999C14.3501 13.1078 15.0415 11.973 15.3975 10.7174C15.7844 9.35196 15.8532 7.91604 15.5987 6.51988H8.15874V9.60613H12.4675C12.3814 10.0984 12.1968 10.5682 11.9249 10.9874C11.653 11.4067 11.2993 11.7668 10.885 12.0461C10.3588 12.3942 9.76574 12.6283 9.14374 12.7336C8.51992 12.8496 7.88006 12.8496 7.25624 12.7336C6.62398 12.6029 6.02587 12.3419 5.49999 11.9674C4.65518 11.3694 4.02084 10.5198 3.68749 9.53988C3.34851 8.54162 3.34851 7.45938 3.68749 6.46113C3.92478 5.7614 4.31703 5.12429 4.83499 4.59738C5.42773 3.98331 6.17816 3.54437 7.00394 3.32872C7.82972 3.11307 8.69894 3.12904 9.51624 3.37488C10.1547 3.57086 10.7386 3.9133 11.2212 4.37488C11.7071 3.89154 12.1921 3.40696 12.6762 2.92113C12.9262 2.65988 13.1987 2.41113 13.445 2.14363C12.7082 1.45797 11.8433 0.924447 10.9 0.573626C9.18212 -0.0501371 7.30246 -0.0669002 5.57374 0.526126Z" fill="white"/>
<path d="M5.57372 0.526245C7.3023 -0.067184 9.18196 -0.0508623 10.9 0.572495C11.8435 0.925699 12.708 1.46179 13.4437 2.14999C13.1937 2.41749 12.93 2.66749 12.675 2.92749C12.19 3.41166 11.7054 3.89416 11.2212 4.37499C10.7385 3.91342 10.1547 3.57098 9.51622 3.37499C8.69919 3.1283 7.82999 3.1114 7.00399 3.32617C6.178 3.54094 5.42711 3.97907 4.83372 4.59249C4.31576 5.11941 3.9235 5.75652 3.68622 6.45624L1.09497 4.44999C2.02248 2.6107 3.62841 1.20377 5.57372 0.526245Z" fill="#E33629"/>
<path d="M0.407499 6.4377C0.546775 5.74744 0.778003 5.07898 1.095 4.4502L3.68625 6.46145C3.34727 7.4597 3.34727 8.54194 3.68625 9.5402C2.82292 10.2069 1.95917 10.8769 1.095 11.5502C0.301437 9.97059 0.0594147 8.17082 0.407499 6.4377Z" fill="#F8BD00"/>
<path d="M8.15876 6.51855H15.5988C15.8533 7.91472 15.7844 9.35064 15.3975 10.7161C15.0416 11.9717 14.3501 13.1065 13.3975 13.9986C12.5613 13.3461 11.7213 12.6986 10.885 12.0461C11.2996 11.7664 11.6535 11.4059 11.9254 10.9862C12.1973 10.5665 12.3817 10.0962 12.4675 9.60355H8.15876C8.15751 8.57605 8.15876 7.5473 8.15876 6.51855Z" fill="#587DBD"/>
<path d="M1.09375 11.55C1.95792 10.8834 2.82167 10.2134 3.685 9.54004C4.01901 10.5203 4.65426 11.3699 5.5 11.9675C6.02751 12.3404 6.62691 12.5992 7.26 12.7275C7.88382 12.8435 8.52368 12.8435 9.1475 12.7275C9.76949 12.6223 10.3626 12.3881 10.8888 12.04C11.725 12.6925 12.565 13.34 13.4012 13.9925C12.4861 14.8247 11.3705 15.4049 10.1637 15.6763C8.83176 15.9894 7.44365 15.9744 6.11875 15.6325C5.07088 15.3528 4.09209 14.8595 3.24375 14.1838C2.34583 13.4709 1.61244 12.5725 1.09375 11.55Z" fill="#319F43"/>
</g>
<defs>
<clipPath id="clip0_985_4795">
<rect width="16" height="16" fill="white"/>
</clipPath>
</defs>
</svg>

<svg xmlns="http://www.w3.org/2000/svg" width="16" height="16" fill="none"><g clip-path="url(#a)"><path fill="#fff" d="M5.574.526a7.91 7.91 0 0 0 .541 15.113 8.45 8.45 0 0 0 4.045.043A7.14 7.14 0 0 0 13.398 14a7.2 7.2 0 0 0 2-3.283 9.3 9.3 0 0 0 .2-4.197h-7.44v3.086h4.31a3.71 3.71 0 0 1-1.583 2.44 4.5 4.5 0 0 1-1.741.688 5.2 5.2 0 0 1-1.888 0 4.65 4.65 0 0 1-1.756-.767A4.9 4.9 0 0 1 3.687 9.54a4.8 4.8 0 0 1 0-3.079c.238-.7.63-1.337 1.148-1.864a4.65 4.65 0 0 1 4.681-1.222 4.3 4.3 0 0 1 1.705 1q.729-.725 1.455-1.454c.25-.261.523-.51.769-.777A7.7 7.7 0 0 0 10.9.574 8 8 0 0 0 5.574.526"/><path fill="#E33629" d="M5.574.526A8 8 0 0 1 10.9.572a7.7 7.7 0 0 1 2.544 1.578c-.25.267-.514.517-.769.777q-.728.727-1.454 1.448a4.3 4.3 0 0 0-1.705-1 4.65 4.65 0 0 0-4.682 1.217 4.9 4.9 0 0 0-1.148 1.864L1.095 4.45A7.94 7.94 0 0 1 5.574.526"/><path fill="#F8BD00" d="M.407 6.438c.14-.69.371-1.359.688-1.988l2.591 2.011a4.8 4.8 0 0 0 0 3.08q-1.295.999-2.591 2.01a7.9 7.9 0 0 1-.688-5.113"/><path fill="#587DBD" d="M8.159 6.519h7.44a9.3 9.3 0 0 1-.201 4.197 7.2 7.2 0 0 1-2 3.283c-.837-.653-1.677-1.3-2.513-1.953a3.72 3.72 0 0 0 1.582-2.442H8.16z"/><path fill="#319F43" d="M1.094 11.55q1.296-1 2.591-2.01c.334.98.97 1.83 1.815 2.428a4.65 4.65 0 0 0 1.76.76 5.2 5.2 0 0 0 1.888 0 4.5 4.5 0 0 0 1.74-.688c.837.653 1.677 1.3 2.513 1.953a7.14 7.14 0 0 1-3.237 1.683 8.45 8.45 0 0 1-4.045-.043 7.962 7.962 0 0 1-5.025-4.082"/></g><defs><clipPath id="a"><path fill="#fff" d="M0 0h16v16H0z"/></clipPath></defs></svg>
